svgs/access-denied-light.svg

<svg width="400" height="400" viewBox="0 0 400 400" fill="none" xmlns="http://www.w3.org/2000/svg">
<g id="access-denied">
<g id="501">
<path id="Path" d="M299.159 107.104C299.159 131.855 289.254 191.177 289.254 224.446C289.254 257.715 289.254 330.967 261.438 358.824C233.623 386.682 199.504 374.958 199.504 374.958C199.504 374.958 152.778 387.984 123.161 360.127C93.545 332.269 63.0281 276.454 54.0231 244.588C44.1176 209.515 27.5084 195.186 26.2077 187.971C24.9069 180.756 29.8096 175.846 38.3144 175.345C46.8191 174.944 61.2271 179.353 72.8335 197.39C84.44 215.428 90.3432 223.444 96.6467 233.365C102.95 243.285 117.258 256.713 117.258 256.713C117.258 256.713 117.658 211.72 118.559 192.48C119.459 173.14 116.758 80.5487 120.36 59.906C123.962 39.2633 146.875 39.6641 149.076 55.8977C151.277 72.0311 157.881 122.836 158.881 135.863C159.882 148.89 162.583 180.355 162.583 180.355L170.188 177.649C170.188 177.649 169.287 71.6302 169.287 44.4741C169.287 15.2136 198.003 15.2136 201.605 40.4658C205.207 65.718 208.309 183.562 208.309 183.562L215.012 186.267C215.012 186.267 217.214 74.3358 220.816 56.3987C224.418 38.4616 247.33 38.8625 250.932 61.3089C254.534 83.7553 252.233 133.659 251.833 155.704C251.433 177.75 250.932 199.294 250.932 199.294L256.335 203.303C256.335 203.303 267.341 129.851 270.743 103.997C274.445 76.1396 299.159 82.4526 299.159 107.104Z" fill="#F0F3F5"/>
<path id="Path_2" d="M303.362 288.98L86.3413 301.005C79.0373 301.406 73.0339 295.794 73.0339 288.479V120.732C73.0339 113.417 79.0373 107.805 86.3413 108.206L303.362 120.231C308.965 120.531 313.467 125.943 313.467 132.256V276.955C313.467 283.268 308.965 288.679 303.362 288.98Z" fill="#E9033A"/>
<path id="Path_3" d="M215.413 161.514L183.095 160.111C181.194 160.011 179.293 160.713 177.892 162.015L153.578 184.863C152.178 186.165 151.377 188.069 151.377 190.073V223.843C151.377 225.847 152.178 227.651 153.578 229.054L177.892 251.901C179.293 253.204 181.194 253.905 183.095 253.805L215.413 252.402C217.214 252.302 219.015 251.5 220.315 250.198L241.827 227.351C243.028 226.048 243.728 224.244 243.728 222.44V191.376C243.728 189.572 243.028 187.769 241.827 186.466L220.315 163.619C219.015 162.316 217.214 161.514 215.413 161.514Z" fill="white"/>
<path id="Path_4" d="M227.519 217.931L169.387 218.532C167.786 218.532 166.385 217.23 166.385 215.526V198.29C166.385 196.687 167.686 195.284 169.387 195.284L227.519 195.885C229.12 195.885 230.421 197.188 230.421 198.892V214.925C230.421 216.628 229.12 217.931 227.519 217.931Z" fill="#E9033A"/>
<path id="Shape" fill-rule="evenodd" clip-rule="evenodd" d="M98.7483 125.943C98.7483 129.35 96.0468 131.955 92.6449 131.755C89.243 131.654 86.5415 128.748 86.5415 125.341C86.5415 121.934 89.3431 119.329 92.6449 119.529C96.0468 119.73 98.7483 122.536 98.7483 125.943ZM118.46 126.845C118.46 130.151 115.758 132.757 112.456 132.657C109.154 132.556 106.453 129.65 106.453 126.344C106.453 123.037 109.154 120.431 112.456 120.532C115.758 120.632 118.46 123.438 118.46 126.845ZM131.866 133.356C135.068 133.557 137.669 130.951 137.669 127.645C137.669 124.338 135.068 121.532 131.866 121.432C128.564 121.231 125.963 123.837 125.963 127.144C125.963 130.45 128.664 133.256 131.866 133.356Z" fill="white"/>
<g id="Group">
<path id="Shape_2" fill-rule="evenodd" clip-rule="evenodd" d="M272.844 269.842H357.391H357.491V207.713C357.491 185.166 339.181 166.929 316.769 166.929H313.567C291.054 166.929 272.844 185.267 272.844 207.713V269.842ZM343.083 255.512H287.152H287.052V207.713C287.052 193.083 298.959 181.258 313.467 181.258H316.668C331.277 181.258 343.083 193.183 343.083 207.713V255.512Z" fill="#FFBE5C"/>
<path id="Path_5" d="M364.695 227.955C364.695 227.955 348.386 225.249 347.385 225.249L268.742 226.352C261.738 226.452 255.034 232.865 255.034 239.479V298.2C255.034 302.91 257.936 306.718 262.038 308.321C263.539 308.922 265.14 309.223 266.841 309.223L279.348 311.528L286.952 307.82L347.385 303.511C353.589 303.11 358.592 297.699 358.592 291.586V248.197L364.695 227.955Z" fill="#FFBE5C"/>
<path id="Path_6" d="M361.794 306.016L282.15 311.728C275.146 312.229 269.443 307.319 269.443 300.705V240.982C269.443 234.368 275.146 228.957 282.15 228.857L361.794 227.754C367.997 227.654 373 232.564 373 238.677V294.192C372.9 300.204 367.997 305.515 361.794 306.016Z" fill="#FFD493"/>
<path id="Path_7" opacity="0.7" d="M337.179 258.518C337.179 252.205 331.976 247.094 325.473 247.094C318.769 247.094 313.166 252.506 313.166 259.119C313.166 264.13 316.368 268.238 320.77 269.842V285.374C320.77 287.879 322.871 289.783 325.473 289.582C328.074 289.382 330.075 287.077 330.075 284.672V269.541C334.378 267.437 337.179 263.228 337.179 258.518Z" fill="#DCA553"/>
<path id="Path_8" d="M332.477 258.518C332.477 253.007 328.475 248.397 323.172 247.295C317.568 248.397 313.166 253.307 313.166 259.119C313.166 264.13 316.368 268.238 320.77 269.842V285.374C320.77 286.877 321.571 288.179 322.771 288.881C324.372 287.979 325.373 286.376 325.373 284.572V269.441C329.575 267.437 332.477 263.228 332.477 258.518Z" fill="white"/>
</g>
<path id="Shape_3" d="M45.7173 62.811C45.7173 61.7065 44.8219 60.811 43.7173 60.811C42.6127 60.811 41.7173 61.7065 41.7173 62.811H45.7173ZM41.7173 71.028C41.7173 72.1326 42.6127 73.028 43.7173 73.028C44.8219 73.028 45.7173 72.1326 45.7173 71.028H41.7173ZM45.7175 88.2622C45.7175 87.1576 44.8221 86.2622 43.7175 86.2622C42.613 86.2622 41.7175 87.1576 41.7175 88.2622H45.7175ZM41.7175 97.1806C41.7175 98.2852 42.613 99.1806 43.7175 99.1806C44.8221 99.1806 45.7175 98.2852 45.7175 97.1806H41.7175ZM60.9277 81.9481C62.0322 81.9481 62.9277 81.0527 62.9277 79.9481C62.9277 78.8435 62.0322 77.9481 60.9277 77.9481V81.9481ZM52.623 77.9481C51.5185 77.9481 50.623 78.8435 50.623 79.9481C50.623 81.0527 51.5185 81.9481 52.623 81.9481V77.9481ZM34.8127 81.9481C35.9172 81.9481 36.8127 81.0527 36.8127 79.9481C36.8127 78.8435 35.9172 77.9481 34.8127 77.9481V81.9481ZM26.5081 77.9481C25.4035 77.9481 24.5081 78.8435 24.5081 79.9481C24.5081 81.0527 25.4035 81.9481 26.5081 81.9481V77.9481ZM41.7173 62.811V71.028H45.7173V62.811H41.7173ZM41.7175 88.2622V97.1806H45.7175V88.2622H41.7175ZM60.9277 77.9481H52.623V81.9481H60.9277V77.9481ZM34.8127 77.9481H26.5081V81.9481H34.8127V77.9481Z" fill="#999999"/>
<path id="Shape_4" d="M319.168 337.578C319.168 336.474 318.273 335.578 317.168 335.578C316.063 335.578 315.168 336.474 315.168 337.578H319.168ZM315.168 343.791C315.168 344.896 316.063 345.791 317.168 345.791C318.273 345.791 319.168 344.896 319.168 343.791H315.168ZM319.168 356.918C319.168 355.814 318.273 354.918 317.168 354.918C316.063 354.918 315.168 355.814 315.168 356.918H319.168ZM315.168 363.733C315.168 364.837 316.063 365.733 317.168 365.733C318.273 365.733 319.168 364.837 319.168 363.733H315.168ZM330.176 352.605C331.281 352.605 332.176 351.71 332.176 350.605C332.176 349.501 331.281 348.605 330.176 348.605V352.605ZM323.973 348.605C322.868 348.605 321.973 349.501 321.973 350.605C321.973 351.71 322.868 352.605 323.973 352.605V348.605ZM310.365 352.605C311.47 352.605 312.365 351.71 312.365 350.605C312.365 349.501 311.47 348.605 310.365 348.605V352.605ZM304.062 348.605C302.957 348.605 302.062 349.501 302.062 350.605C302.062 351.71 302.957 352.605 304.062 352.605V348.605ZM315.168 337.578V343.791H319.168V337.578H315.168ZM315.168 356.918V363.733H319.168V356.918H315.168ZM330.176 348.605H323.973V352.605H330.176V348.605ZM310.365 348.605H304.062V352.605H310.365V348.605Z" fill="#999999"/>
<g id="Group_2">
<path id="Oval" fill-rule="evenodd" clip-rule="evenodd" d="M39.2152 348.1C46.3989 348.1 52.2224 342.268 52.2224 335.073C52.2224 327.879 46.3989 322.046 39.2152 322.046C32.0315 322.046 26.208 327.879 26.208 335.073C26.208 342.268 32.0315 348.1 39.2152 348.1Z" stroke="#999999" stroke-width="4" stroke-linecap="round" stroke-linejoin="round"/>
<path id="Shape_5" d="M52.2227 333.073C51.1181 333.073 50.2227 333.969 50.2227 335.073C50.2227 336.178 51.1181 337.073 52.2227 337.073V333.073ZM87.4422 335.073H89.4422C89.4422 333.969 88.5468 333.073 87.4422 333.073V335.073ZM85.4422 347.299C85.4422 348.403 86.3376 349.299 87.4422 349.299C88.5468 349.299 89.4422 348.403 89.4422 347.299H85.4422ZM68.3319 347.299C68.3319 348.403 69.2274 349.299 70.3319 349.299C71.4365 349.299 72.3319 348.403 72.3319 347.299H68.3319ZM72.3319 335.073C72.3319 333.969 71.4365 333.073 70.3319 333.073C69.2274 333.073 68.3319 333.969 68.3319 335.073H72.3319ZM52.2227 337.073H87.4422V333.073H52.2227V337.073ZM85.4422 335.073V347.299H89.4422V335.073H85.4422ZM72.3319 347.299V335.073H68.3319V347.299H72.3319Z" fill="#999999"/>
</g>
</g>
</g>
</svg>

<svg xmlns="http://www.w3.org/2000/svg" width="400" height="400" fill="none" viewBox="0 0 400 400"><path fill="#F0F3F5" d="M299.159 107.104c0 24.751-9.905 84.073-9.905 117.342s0 106.521-27.816 134.378c-27.815 27.858-61.934 16.134-61.934 16.134s-46.726 13.026-76.343-14.831c-29.616-27.858-60.133-83.673-69.138-115.539-9.905-35.073-26.515-49.402-27.815-56.617s3.602-12.125 12.106-12.626c8.505-.401 22.913 4.008 34.52 22.045 11.606 18.038 17.51 26.054 23.813 35.975 6.303 9.92 20.611 23.348 20.611 23.348s.4-44.993 1.301-64.233c.9-19.34-1.801-111.931 1.801-132.574s26.515-20.242 28.716-4.008c2.201 16.133 8.805 66.938 9.805 79.965s3.702 44.492 3.702 44.492l7.605-2.706s-.901-106.019-.901-133.175c0-29.26 28.716-29.26 32.318-4.008s6.704 143.096 6.704 143.096l6.703 2.705s2.202-111.931 5.804-129.868 26.514-17.537 30.116 4.91 1.301 72.35.901 94.395-.901 43.59-.901 43.59l5.403 4.009s11.006-73.452 14.408-99.306c3.702-27.857 28.416-21.544 28.416 3.107"/><path fill="#E9033A" d="m303.362 288.98-217.02 12.025c-7.305.401-13.308-5.211-13.308-12.526V120.732c0-7.315 6.003-12.927 13.307-12.526l217.021 12.025c5.603.3 10.105 5.712 10.105 12.025v144.699c0 6.313-4.502 11.724-10.105 12.025"/><path fill="#fff" d="m215.413 161.514-32.318-1.403a7.15 7.15 0 0 0-5.203 1.904l-24.314 22.848c-1.4 1.302-2.201 3.206-2.201 5.21v33.77c0 2.004.801 3.808 2.201 5.211l24.314 22.847a7.15 7.15 0 0 0 5.203 1.904l32.318-1.403a7.64 7.64 0 0 0 4.902-2.204l21.512-22.847c1.201-1.303 1.901-3.107 1.901-4.911v-31.064c0-1.804-.7-3.607-1.901-4.91l-21.512-22.847c-1.3-1.303-3.101-2.105-4.902-2.105"/><path fill="#E9033A" d="m227.519 217.931-58.132.601c-1.601 0-3.002-1.302-3.002-3.006V198.29c0-1.603 1.301-3.006 3.002-3.006l58.132.601c1.601 0 2.902 1.303 2.902 3.007v16.033c0 1.703-1.301 3.006-2.902 3.006"/><path fill="#fff" fill-rule="evenodd" d="M98.748 125.943c0 3.407-2.701 6.012-6.103 5.812-3.402-.101-6.103-3.007-6.103-6.414s2.801-6.012 6.103-5.812c3.402.201 6.103 3.007 6.103 6.414m19.712.902a5.796 5.796 0 0 1-6.004 5.812c-3.302-.101-6.003-3.007-6.003-6.313a5.794 5.794 0 0 1 6.003-5.812c3.302.1 6.004 2.906 6.004 6.313m13.406 6.511c3.202.201 5.803-2.405 5.803-5.711s-2.601-6.113-5.803-6.213c-3.302-.201-5.903 2.405-5.903 5.712s2.701 6.112 5.903 6.212" clip-rule="evenodd"/><path fill="#FFBE5C" fill-rule="evenodd" d="M272.844 269.842h84.647v-62.129c0-22.547-18.31-40.784-40.722-40.784h-3.202c-22.513 0-40.723 18.338-40.723 40.784zm70.239-14.33h-56.031v-47.799c0-14.63 11.907-26.455 26.415-26.455h3.201c14.609 0 26.415 11.925 26.415 26.455z" clip-rule="evenodd"/><path fill="#FFBE5C" d="M364.695 227.955s-16.309-2.706-17.31-2.706l-78.643 1.103c-7.004.1-13.708 6.513-13.708 13.127V298.2c0 4.71 2.902 8.518 7.004 10.121q2.251.902 4.803.902l12.507 2.305 7.604-3.708 60.433-4.309c6.204-.401 11.207-5.812 11.207-11.925v-43.389z"/><path fill="#FFD493" d="m361.794 306.016-79.644 5.712c-7.004.501-12.707-4.409-12.707-11.023v-59.723c0-6.614 5.703-12.025 12.707-12.125l79.644-1.103c6.203-.1 11.206 4.81 11.206 10.923v55.515c-.1 6.012-5.003 11.323-11.206 11.824"/><path fill="#DCA553" d="M337.179 258.518c0-6.313-5.203-11.424-11.706-11.424-6.704 0-12.307 5.412-12.307 12.025 0 5.011 3.202 9.119 7.604 10.723v15.532c0 2.505 2.101 4.409 4.703 4.208 2.601-.2 4.602-2.505 4.602-4.91v-15.131c4.303-2.104 7.104-6.313 7.104-11.023" opacity=".7"/><path fill="#fff" d="M332.477 258.518c0-5.511-4.002-10.121-9.305-11.223-5.604 1.102-10.006 6.012-10.006 11.824 0 5.011 3.202 9.119 7.604 10.723v15.532c0 1.503.801 2.805 2.001 3.507 1.601-.902 2.602-2.505 2.602-4.309v-15.131c4.202-2.004 7.104-6.213 7.104-10.923"/><path fill="#999" d="M45.717 62.811a2 2 0 0 0-4 0zm-4 8.217a2 2 0 1 0 4 0zm4 17.234a2 2 0 1 0-4 0zm-4 8.919a2 2 0 0 0 4 0zm19.21-15.233a2 2 0 0 0 0-4zm-8.304-4a2 2 0 0 0 0 4zm-17.81 4a2 2 0 0 0 0-4zm-8.305-4a2 2 0 1 0 0 4zm15.21-15.137v8.217h4v-8.217zm0 25.451v8.919h4v-8.919zm19.21-10.314h-8.305v4h8.305zm-26.115 0h-8.305v4h8.305zm284.355 259.63a2 2 0 0 0-4 0zm-4 6.213a2 2 0 1 0 4 0zm4 13.127a2 2 0 0 0-4 0zm-4 6.815a2 2 0 0 0 4 0zm15.008-11.128a2 2 0 1 0 0-4zm-6.203-4a2 2 0 0 0 0 4zm-13.608 4a2 2 0 1 0 0-4zm-6.303-4a2 2 0 0 0 0 4zm11.106-11.027v6.213h4v-6.213zm0 19.34v6.815h4v-6.815zm15.008-8.313h-6.203v4h6.203zm-19.811 0h-6.303v4h6.303z"/><path stroke="#999" stroke-linecap="round" stroke-linejoin="round" stroke-width="4" d="M39.215 348.1c7.184 0 13.007-5.832 13.007-13.027s-5.823-13.027-13.007-13.027-13.007 5.833-13.007 13.027c0 7.195 5.824 13.027 13.007 13.027" clip-rule="evenodd"/><path fill="#999" d="M52.223 333.073a2 2 0 0 0 0 4zm35.22 2h2a2 2 0 0 0-2-2zm-2 12.226a2 2 0 0 0 4 0zm-17.111 0a2 2 0 0 0 4 0zm4-12.226a2 2 0 0 0-4 0zm-20.11 2h35.22v-4h-35.22zm33.22-2v12.226h4v-12.226zm-13.11 12.226v-12.226h-4v12.226z"/></svg>
